!!!SOCIAL_FUNCTION: stomp dance songs
!!!PDT:	1943
!!!LING_GROUP: Muskogean
!!!LANG: Non-Tone
Specific Region: Oklahoma, California, Mississippi, Louisiana, Texas, Alabama
!!!REG: Southeast
!!!COM: Anon.
!!!OTL: Stomp Dance Song (e)
!!!ODT: <1933//
!!!MPN: Lapintabeseihoke [Kills it Himself, Sidney Wesley]
!!!MLC: Philadelphia, Mississippi, United States of America
!! Song was recorded in January 1933.
!!!AGN: monody
!!!AMT: irregular
!!!RWG: Transcribed pitches, durations, and meters are only approximate.
**kern
*ICvox
*Imale
*clefF4
*k[b-e-]
*M3/4
*MM72
=1-
8G
8A
16B-
8.G
8G
8G
=2
8G
16E-
16D
16G
16G
16G
16F
8G
8G
=3
8G
8A
16B-
8.G
8G
8G
=4
8G
16E-
16D
16G
16G
16G
16F
8G
16.G
32c
=5
8.c
16B-
8B-
8G
16G
8G
16r
*M2/4
=6
8G
16E-
16D
16G
16G
16G
16F
=7
8G
8G
8G
16G
16r
=8
8B-
8G
16G
8G
16r
=9
8G
16G
16G
8G
8G
*M3/4
=10
8G
16E-
16D
16G
16G
16G
16F
8G
16G
16r
=11
16B-
8G
16G
8B-
8G
16G
8G
16r
=12
8G
16E-
16D
16G
16G
16G
16F
8G
16.G
32B-
=13
8.B-
16c
8c
8B-
16B-
8G
16r
=14
8G
16E-
16D
16G
16G
16G
16F
8G
8G
=15
16B-
8G
16G
8.B-
16G
16G
8G
16r
=16
8G
16E-
16D
16G
16G
16G
16F
8G
8G
=17
16B-
8G
16G
8B-
8G
16G
8G
16r
=18
8G
16E-
16D
16G
16G
16G
16F
8G
16.G
32G
=19
4G
8G
8r
4r
==
*-
!!!CNT: Choctaw
!!!TXO: Choctaw
!!!OCY: United States
!!!OCL: Frances Densmore
!!!YOR: Frances Densmore, "Choctaw Music"
!!!YOR: Bulletin 136, page 165, No. 48
!!!PPR: Smithsonian Institution, Bureau of American Ethnology
!!!PPR: Government Printing Office
!!!PDT: 1943
!!!PPP: Washington, DC, United States of America
!!!YEC: Electronic Copyright 2000 David Huron
!!!YER: August 2000
!!!YEN: United States of America
!!!ENC: David Huron
!!!RDT: August 29, 2000
!!!EEV: Release 1.0
!!!AIN: vox
